src/icons/architecture.svg

<svg
  width="24"
  height="24"
  viewBox="0 0 24 24"
  fill="none"
  xmlns="http://www.w3.org/2000/svg"
>
  <path
    d="M6.278 22L6 19.556L9.167 10.833C9.71359 11.3461 10.3831 11.7097 11.111 11.889L8.056 20.278L6.278 22ZM17.944 22L16.167 20.278L13.111 11.888C13.481 11.796 13.829 11.662 14.153 11.486C14.4806 11.3077 14.784 11.0882 15.056 10.833L18.222 19.556L17.944 22ZM12.111 10.889C11.185 10.889 10.398 10.565 9.75 9.917C9.102 9.269 8.778 8.481 8.778 7.556C8.778 6.833 8.986 6.19 9.402 5.624C9.819 5.06 10.352 4.667 11 4.444V2H13.222V4.444C13.864 4.66229 14.4224 5.07462 14.82 5.624C15.236 6.19 15.444 6.834 15.444 7.556C15.444 8.481 15.12 9.269 14.472 9.916C13.824 10.565 13.037 10.889 12.112 10.889H12.111ZM12.111 8.667C12.426 8.667 12.69 8.56 12.903 8.347C13.116 8.134 13.223 7.87 13.223 7.556C13.223 7.241 13.116 6.976 12.903 6.763C12.7997 6.6587 12.6761 6.5766 12.5399 6.52174C12.4037 6.46689 12.2578 6.44043 12.111 6.444C11.796 6.444 11.533 6.551 11.32 6.764C11.107 6.977 11 7.241 11 7.556C11 7.87 11.107 8.134 11.32 8.346C11.533 8.56 11.796 8.667 12.111 8.667Z"
    fill="#66BB6A"
  />
</svg>

<svg viewBox="0 0 24 24" xmlns="http://www.w3.org/2000/svg">
  <path
    d="M6.278 22 6 19.556l3.167-8.723a4.366 4.366 0 0 0 1.944 1.056l-3.055 8.389L6.278 22Zm11.666 0-1.777-1.722-3.056-8.39c.37-.092.718-.226 1.042-.402a4.38 4.38 0 0 0 .903-.653l3.166 8.723L17.944 22Zm-5.833-11.111c-.926 0-1.713-.324-2.361-.972-.648-.648-.972-1.436-.972-2.361 0-.723.208-1.366.624-1.932.417-.564.95-.957 1.598-1.18V2h2.222v2.444a3.273 3.273 0 0 1 1.598 1.18c.416.566.624 1.21.624 1.932 0 .925-.324 1.713-.972 2.36-.648.649-1.435.973-2.36.973Zm0-2.222c.315 0 .579-.107.792-.32.213-.213.32-.477.32-.791 0-.315-.107-.58-.32-.793a1.078 1.078 0 0 0-.792-.319c-.315 0-.578.107-.791.32-.213.213-.32.477-.32.792 0 .314.107.578.32.79.213.214.476.32.791.32Z"
    fill="#66BB6A"
  />
</svg>
